X: 21123
T: Karhunpeijaispolska
R: polka
M: 2/4
K: Dmajor
L:1/16
|:A2GF E2D2|E2F2 G2AG|F2A2 E2AA|D2D2 D4:|
|:D2EF E2D2|E2F2 G2AG|F2A2 E2A2|D2D2 D4:|

